icons/lxc-dark.svg

<svg width="256" height="256" viewBox="0 0 256 256" fill="none" xmlns="http://www.w3.org/2000/svg">
<path d="M196 0H60C26.8629 0 0 26.8629 0 60V196C0 229.137 26.8629 256 60 256H196C229.137 256 256 229.137 256 196V60C256 26.8629 229.137 0 196 0Z" fill="#282828"/>
<g clip-path="url(#clip0_0_1)">
<path d="M227.06 128L226.976 165.227L128.321 227.346L128.405 190.121L227.06 128Z" fill="#DD4814" stroke="white" stroke-miterlimit="10" stroke-linecap="round" stroke-linejoin="round"/>
<path d="M128.405 190.121L128.321 227.346L29.0352 165.227L29.1197 128L128.405 190.121Z" fill="#DD4814" stroke="white" stroke-miterlimit="10" stroke-linecap="round" stroke-linejoin="round"/>
<path d="M227.143 90.7746L177.817 121.834L78.5303 59.7141L127.858 28.6537L227.143 90.7746Z" fill="#333333" stroke="white" stroke-miterlimit="10" stroke-linecap="round" stroke-linejoin="round"/>
<path d="M227.397 90.9117L227.27 128.137L177.944 159.198L178.069 121.971L227.397 90.9117Z" fill="#333333" stroke="white" stroke-miterlimit="10" stroke-linecap="round" stroke-linejoin="round"/>
<path d="M177.817 121.834L177.733 159.06L78.447 96.9409L78.5303 59.7141L177.817 121.834Z" fill="#333333"/>
<mask id="mask0_0_1" style="mask-type:luminance" maskUnits="userSpaceOnUse" x="78" y="59" width="100" height="101">
<path d="M177.817 121.834L177.733 159.06L78.447 96.9409L78.5303 59.7141L177.817 121.834Z" fill="white"/>
</mask>
<g mask="url(#mask0_0_1)">
<path d="M177.817 121.834L177.733 159.06L78.447 96.9409L78.5303 59.7141L177.817 121.834Z" fill="#333333" stroke="white" stroke-miterlimit="10"/>
</g>
<path d="M177.817 121.834L177.733 159.06L78.447 96.9409L78.5303 59.7141L177.817 121.834Z" stroke="white" stroke-miterlimit="10"/>
<path d="M177.775 140.424L128.448 171.485L29.162 109.411L78.4881 78.3503L177.775 140.424Z" fill="#888888" stroke="white" stroke-miterlimit="10" stroke-linecap="round" stroke-linejoin="round"/>
<path d="M128.448 171.485L128.405 190.121L29.1197 128L29.162 109.411L128.448 171.485Z" fill="#888888" stroke="white" stroke-miterlimit="10" stroke-linecap="round" stroke-linejoin="round"/>
<path d="M177.775 140.424L177.733 159.06L128.405 190.121L128.448 171.485L177.775 140.424Z" fill="#888888" stroke="white" stroke-miterlimit="10" stroke-linecap="round" stroke-linejoin="round"/>
<path d="M127.773 90.8661L127.731 109.411L78.6148 140.333L78.657 121.788L127.773 90.8661Z" fill="#2C001E" stroke="white" stroke-miterlimit="10" stroke-linecap="round" stroke-linejoin="round"/>
<path d="M127.773 90.8661L78.657 121.788L29.2042 90.8661L78.5303 59.7141L127.773 90.8661Z" fill="#CDCDCD"/>
<path d="M78.657 121.788L78.6148 140.333L29.162 109.411L29.2042 90.8661L78.657 121.788Z" fill="#CDCDCD"/>
<path d="M127.773 90.8661L127.731 109.411L78.6148 140.333L78.657 121.788L127.773 90.8661Z" fill="#CDCDCD"/>
<mask id="mask1_0_1" style="mask-type:luminance" maskUnits="userSpaceOnUse" x="29" y="78" width="99" height="63">
<path d="M127.773 109.411L78.6148 140.333L29.2042 109.411L78.5303 78.3503L127.773 109.411Z" fill="white"/>
</mask>
<g mask="url(#mask1_0_1)">
<path d="M127.773 109.411L78.657 140.333L29.2042 109.411L78.5303 78.3503L127.773 109.411Z" stroke="white" stroke-miterlimit="10"/>
</g>
<path d="M127.773 109.411L78.6148 140.333L29.2042 109.411L78.5303 78.3503L127.773 109.411Z" stroke="white" stroke-miterlimit="10"/>
<mask id="mask2_0_1" style="mask-type:luminance" maskUnits="userSpaceOnUse" x="29" y="59" width="99" height="63">
<path d="M127.815 90.8661L78.6992 121.788L29.2464 90.8661L78.5725 59.7141L127.815 90.8661Z" fill="white"/>
</mask>
<g mask="url(#mask2_0_1)">
<path d="M127.815 90.8661L78.6992 121.788L29.2464 90.8661L78.5725 59.7141L127.815 90.8661Z" stroke="white" stroke-miterlimit="10"/>
</g>
<path d="M127.815 90.8661L78.6992 121.788L29.2464 90.8661L78.5725 59.7141L127.815 90.8661Z" stroke="white" stroke-miterlimit="10"/>
<mask id="mask3_0_1" style="mask-type:luminance" maskUnits="userSpaceOnUse" x="29" y="90" width="50" height="51">
<path d="M78.6992 121.788L78.6148 140.333L29.2042 109.411L29.2464 90.8661L78.6992 121.788Z" fill="white"/>
</mask>
<g mask="url(#mask3_0_1)">
<path d="M78.6992 121.788L78.657 140.333L29.2042 109.411L29.2464 90.8661L78.6992 121.788Z" stroke="white" stroke-miterlimit="10"/>
</g>
<path d="M78.6992 121.788L78.6148 140.333L29.2042 109.411L29.2464 90.8661L78.6992 121.788Z" stroke="white" stroke-miterlimit="10"/>
<mask id="mask4_0_1" style="mask-type:luminance" maskUnits="userSpaceOnUse" x="29" y="59" width="50" height="51">
<path d="M29.2464 90.8661L78.5725 59.7141L78.5303 78.3504L29.2042 109.411L29.2464 90.8661Z" fill="white"/>
</mask>
<g mask="url(#mask4_0_1)">
<path d="M29.2464 90.8661L78.5725 59.7141L78.5303 78.3504L29.2042 109.411L29.2464 90.8661Z" stroke="white" stroke-miterlimit="10"/>
</g>
<path d="M29.2464 90.8661L78.5725 59.7141L78.5303 78.3504L29.2042 109.411L29.2464 90.8661Z" stroke="white" stroke-miterlimit="10"/>
<mask id="mask5_0_1" style="mask-type:luminance" maskUnits="userSpaceOnUse" x="78" y="59" width="50" height="51">
<path d="M78.5725 59.7141L127.815 90.8661L127.773 109.411L78.5303 78.3504L78.5725 59.7141Z" fill="white"/>
</mask>
<g mask="url(#mask5_0_1)">
<path d="M78.5725 59.7141L127.815 90.8661L127.773 109.411L78.3203 78.4877L78.5725 59.7141Z" stroke="white" stroke-miterlimit="10"/>
</g>
<path d="M78.5725 59.7141L127.815 90.8661L127.773 109.411L78.5303 78.3504L78.5725 59.7141Z" stroke="white" stroke-miterlimit="10"/>
</g>
<defs>
<clipPath id="clip0_0_1">
<rect width="200" height="200" fill="white" transform="translate(28 28)"/>
</clipPath>
</defs>
</svg>

<svg xmlns="http://www.w3.org/2000/svg" width="256" height="256" fill="none"><path fill="#282828" d="M196 0H60C26.863 0 0 26.863 0 60v136c0 33.137 26.863 60 60 60h136c33.137 0 60-26.863 60-60V60c0-33.137-26.863-60-60-60"/><g clip-path="url(#clip0_0_1)"><path fill="#DD4814" stroke="#fff" stroke-linecap="round" stroke-linejoin="round" stroke-miterlimit="10" d="m227.06 128-.084 37.227-98.655 62.119.084-37.225z"/><path fill="#DD4814" stroke="#fff" stroke-linecap="round" stroke-linejoin="round" stroke-miterlimit="10" d="m128.405 190.121-.084 37.225-99.286-62.119L29.12 128z"/><path fill="#333" stroke="#fff" stroke-linecap="round" stroke-linejoin="round" stroke-miterlimit="10" d="m227.143 90.775-49.326 31.059-99.287-62.12 49.328-31.06zm.254.137-.127 37.225-49.326 31.061.125-37.227z"/><path fill="#333" d="m177.817 121.834-.084 37.226-99.286-62.12.083-37.226z"/><mask id="mask0_0_1" width="100" height="101" x="78" y="59" maskUnits="userSpaceOnUse" style="mask-type:luminance"><path fill="#fff" d="m177.817 121.834-.084 37.226-99.286-62.12.083-37.226z"/></mask><g mask="url(#mask0_0_1)"><path fill="#333" stroke="#fff" stroke-miterlimit="10" d="m177.817 121.834-.084 37.226-99.286-62.12.083-37.226z"/></g><path stroke="#fff" stroke-miterlimit="10" d="m177.817 121.834-.084 37.226-99.286-62.12.083-37.226z"/><path fill="#888" stroke="#fff" stroke-linecap="round" stroke-linejoin="round" stroke-miterlimit="10" d="m177.775 140.424-49.327 31.061-99.286-62.074 49.326-31.06z"/><path fill="#888" stroke="#fff" stroke-linecap="round" stroke-linejoin="round" stroke-miterlimit="10" d="m128.448 171.485-.043 18.636L29.12 128l.042-18.589z"/><path fill="#888" stroke="#fff" stroke-linecap="round" stroke-linejoin="round" stroke-miterlimit="10" d="m177.775 140.424-.042 18.636-49.328 31.061.043-18.636z"/><path fill="#2C001E" stroke="#fff" stroke-linecap="round" stroke-linejoin="round" stroke-miterlimit="10" d="m127.773 90.866-.042 18.545-49.116 30.922.042-18.545z"/><path fill="#CDCDCD" d="m127.773 90.866-49.116 30.922-49.453-30.922L78.53 59.714z"/><path fill="#CDCDCD" d="m78.657 121.788-.042 18.545-49.453-30.922.042-18.545z"/><path fill="#CDCDCD" d="m127.773 90.866-.042 18.545-49.116 30.922.042-18.545z"/><mask id="mask1_0_1" width="99" height="63" x="29" y="78" maskUnits="userSpaceOnUse" style="mask-type:luminance"><path fill="#fff" d="m127.773 109.411-49.158 30.922-49.41-30.922 49.325-31.06z"/></mask><g mask="url(#mask1_0_1)"><path stroke="#fff" stroke-miterlimit="10" d="m127.773 109.411-49.116 30.922-49.453-30.922 49.326-31.06z"/></g><path stroke="#fff" stroke-miterlimit="10" d="m127.773 109.411-49.158 30.922-49.41-30.922 49.325-31.06z"/><mask id="mask2_0_1" width="99" height="63" x="29" y="59" maskUnits="userSpaceOnUse" style="mask-type:luminance"><path fill="#fff" d="m127.815 90.866-49.116 30.922-49.453-30.922 49.327-31.152z"/></mask><g mask="url(#mask2_0_1)"><path stroke="#fff" stroke-miterlimit="10" d="m127.815 90.866-49.116 30.922-49.453-30.922 49.327-31.152z"/></g><path stroke="#fff" stroke-miterlimit="10" d="m127.815 90.866-49.116 30.922-49.453-30.922 49.327-31.152z"/><mask id="mask3_0_1" width="50" height="51" x="29" y="90" maskUnits="userSpaceOnUse" style="mask-type:luminance"><path fill="#fff" d="m78.7 121.788-.085 18.545-49.41-30.922.041-18.545z"/></mask><g mask="url(#mask3_0_1)"><path stroke="#fff" stroke-miterlimit="10" d="m78.7 121.788-.043 18.545-49.453-30.922.042-18.545z"/></g><path stroke="#fff" stroke-miterlimit="10" d="m78.7 121.788-.085 18.545-49.41-30.922.041-18.545z"/><mask id="mask4_0_1" width="50" height="51" x="29" y="59" maskUnits="userSpaceOnUse" style="mask-type:luminance"><path fill="#fff" d="m29.246 90.866 49.327-31.152-.043 18.636-49.326 31.061z"/></mask><g mask="url(#mask4_0_1)"><path stroke="#fff" stroke-miterlimit="10" d="m29.246 90.866 49.327-31.152-.043 18.636-49.326 31.061z"/></g><path stroke="#fff" stroke-miterlimit="10" d="m29.246 90.866 49.327-31.152-.043 18.636-49.326 31.061z"/><mask id="mask5_0_1" width="50" height="51" x="78" y="59" maskUnits="userSpaceOnUse" style="mask-type:luminance"><path fill="#fff" d="m78.573 59.714 49.242 31.152-.042 18.545-49.243-31.06z"/></mask><g mask="url(#mask5_0_1)"><path stroke="#fff" stroke-miterlimit="10" d="m78.573 59.714 49.242 31.152-.042 18.545L78.32 78.488z"/></g><path stroke="#fff" stroke-miterlimit="10" d="m78.573 59.714 49.242 31.152-.042 18.545-49.243-31.06z"/></g><defs><clipPath id="clip0_0_1"><path fill="#fff" d="M28 28h200v200H28z"/></clipPath></defs></svg>
